X:1
T:Arietta
T:Edvard Grieg Op. 12, No. 1 
%%score { ( 1 4 ) | ( 2 3 5 ) }
L:1/8
M:2/4
K:Eb
V:1 treble nm="Piano"
V:4 treble 
V:2 bass 
V:3 bass 
V:5 bass 
V:1
!p!"^Poco Andante e sostenuto." !5!gg!<(!gg!<)! |!>(! g!4!=e!>)! f2 | ff!<(!ff!<)! | %3
!>(! f!4!d!>)! e2 | .e(!5!e!5!d)(d | !4!c)c !3!B2 | .e(e d)!3!B/(!5!d/ | c)!5!c B2 | %8
 (!3!=A!1!B/c/!<(! !3!d/!<)!!>(!fe/)!>)! | (!4!^F2 G2) | (!3!=FG/_A/!<(! !3!=B/d!<)!!>(!c/)!>)! | %11
 !5!E4 | .!5!gg!<(!gg!<)! |!>(! g!>)!!4!=e f2 | ff!<(!ff!<)! |!>(! f!4!d!>)! e2 | %16
 !4!B(!5!B .!5!=A)!3!F/(!5!A/ | ._A)!5!A G2 | (!3!F!1!G/A/!<(! !3!=B/d!<)!!>(!c/)!>)! | !4!D2 E2 | %20
 (!3!FG/A/!<(! !3!=B/d!<)!!>(!c/)!>)! | !2!E4 |"^ritard."!>(! .!5!ggg!fermata!g!>)! |] %23
V:2
!ped! E,4-!ped-up! | E,4 | E,4- | E,4 | C,2 B,,2 | =A,,2 !4!D,2 | C,2 B,,2 | =A,,2 D,2 | %8
!ped! C,2!ped-up! z2 | E,4 |!ped! _A,,2!ped-up! z2 | B,,4- |!ped! !4!!stemless!B,,2 x2!ped-up! | %13
 (_C/D/[I:staff -1] A/_c/)[I:staff +1] (C/D/[I:staff -1] A/c/) |[I:staff +1] E,4- | E,4 | %16
 _D,2 C,2 | !5!F,,2 !4!G,,2 | A,,2 x2 | !4!=B,,2 C,2 | A,,2 x2 | !5!B,,4- | %22
!ped! !stemless!B,,2 !fermata!B,2!ped-up! |] %23
V:3
 (!2!B,/E/[I:staff -1] G/B/)[I:staff +1] (B,/E/[I:staff -1] G/B/) | %1
[I:staff +1] (!2!_C/D/[I:staff -1] A/_c/)[I:staff +1] (C/D/[I:staff -1] A/c/) | %2
[I:staff +1] (_C/D/[I:staff -1] A/_c/)[I:staff +1] (C/D/[I:staff -1] A/c/) | %3
[I:staff +1] (B,/E/[I:staff -1] G/B/)[I:staff +1] (B,/E/[I:staff -1] G/B/) | %4
[I:staff +1] (!2!G,/=A,/[I:staff -1] E/G/)[I:staff +1] (!2!G,/B,/[I:staff -1] E/G/) | %5
[I:staff +1] (G,/C/[I:staff -1] E/G/)[I:staff +1] (!2!G,/B,/[I:staff -1] E/G/) | %6
[I:staff +1] (G,/=A,/[I:staff -1] E/G/)[I:staff +1] (G,/B,/[I:staff -1] !1!E/!2!G/) | %7
[I:staff +1] (G,/C/[I:staff -1] E/G/)[I:staff +1] (G,/B,/[I:staff -1] E/G/) | %8
[I:staff +1] (G,/=A,/[I:staff -1] !4!E/G/)[I:staff +1] z2 | (=A,2 G,2) | %10
 (!2!E,/F,/[I:staff -1] C/E/)[I:staff +1] z2 | (^F,3 G,) | %12
 !1!E,,/!5!E/[I:staff -1] G/B/[I:staff +1] (!3!B,/E/[I:staff -1] G/B/) | x4 | %14
[I:staff +1] (_C/D/[I:staff -1] A/_c/)[I:staff +1] (C/D/[I:staff -1] A/c/) | %15
[I:staff +1] B,/E/[I:staff -1] G/B/[I:staff +1] (B,/E/[I:staff -1] G/B/) | %16
[I:staff +1] _D,/E,/[I:staff -1] B,/E/[I:staff +1] C,/E,/[I:staff -1] !1!=A,/!2!E/ | %17
[I:staff +1] (F,,/E,/[I:staff -1] _A,/E/)[I:staff +1] (G,,/E,/[I:staff -1] B,/E/) | %18
[I:staff +1] !3!A,,/E,/[I:staff -1] !4!C/E/[I:staff +1] z2 | (!1!F,2 E,2) | %20
 (E,/F,/[I:staff -1] C/E/)[I:staff +1] z2 | (!2!^F,3 !3!G,) | %22
 E,,/E/[I:staff -1] G/B/[I:staff +1] B,/E/[I:staff -1] G/B/ |] %23
V:4
 x4 | x4 | x4 | x4 | x4 | x4 | x4 | x4 | x4 | (!2!C2 B,2) | x4 | (!1!=A,3 !2!B,){!1!E!2!G} | x4 | %13
 x4 | x4 | x4 | x4 | x4 | x4 | (!2!A,2 G,2) | x4 | (!1!=A,3!pp! !2!B,){!1!E!2!G} | x x x G |] %23
V:5
 x4 | x4 | x4 | x4 | x4 | x4 | x4 | x4 | x4 | x4 | x4 | x4 | x4 | x4 | x4 | x4 | x4 | x4 | x4 | %19
 x4 | x4 | x4 | x2 x/ E x/ |] %23

